X:216
M:4/4
L:1/4
K:Ab
c B A F | A G =E C | F3/2 G/ A G | c B A3/2 z/ | c B A F | A G =E C | F3/2 G/ A G | c B A3/2 z/ | B B c A | d c B3/2 z/ | c c d B | e d c3/2 z/ | d c B c | A G F D | !sintro!C3/2 =E/ F A | c2 (B A) | G4 | F4 !eintro!|]
